packages/icons/svg/multicolor/geniet-clover.svg

<svg width="24" height="24" viewBox="-0.41 0.01 24.82 24.82" fill="none" xmlns="http://www.w3.org/2000/svg">
<path d="M11.472 14.3038C11.8565 14.15 12.2928 14.3372 12.4466 14.7217C12.8251 15.6682 13.1018 17.1917 12.7981 18.71C12.4867 20.2665 11.5576 21.8273 9.54619 22.6895C9.16558 22.8526 8.72412 22.6764 8.56084 22.2959C8.39772 21.9153 8.57391 21.4739 8.95439 21.3106C10.4426 20.6728 11.0971 19.5667 11.3274 18.4151C11.5653 17.2253 11.3421 15.9985 11.054 15.2784C10.9003 14.8938 11.0874 14.4576 11.472 14.3038Z" fill="#10884C"/>
<path d="M16.05 2C18.7838 2 21 4.21619 21 6.95C21 8.62491 20.1673 10.1043 18.8941 11C20.1673 11.8957 21 13.3751 21 15.05C21 17.7838 18.7838 20 16.05 20C14.3751 20 12.8957 19.1673 12 17.8941C11.1043 19.1673 9.62491 20 7.95 20C5.21619 20 3 17.7838 3 15.05C3 13.3753 3.83219 11.8957 5.10498 11C3.83219 10.1043 3 8.62466 3 6.95C3 4.21619 5.21619 2 7.95 2C9.62466 2 11.1043 2.83219 12 4.10498C12.8957 2.83219 14.3753 2 16.05 2Z" fill="#2EB66D"/>
<path d="M6.96967 5.97944C7.26256 5.68654 7.73732 5.68654 8.03022 5.97944L10.0302 7.97944C10.3231 8.27233 10.3231 8.74709 10.0302 9.03998C9.73732 9.33288 9.26256 9.33288 8.96967 9.03998L6.96967 7.03998C6.67678 6.74709 6.67678 6.27233 6.96967 5.97944Z" fill="#10884C"/>
<path d="M6.96967 16.3458C7.26256 16.6387 7.73732 16.6387 8.03022 16.3458L10.0302 14.3458C10.3231 14.0529 10.3231 13.5781 10.0302 13.2852C9.73732 12.9923 9.26256 12.9923 8.96967 13.2852L6.96967 15.2852C6.67678 15.5781 6.67678 16.0529 6.96967 16.3458Z" fill="#10884C"/>
<path d="M17.0284 5.97944C16.7355 5.68654 16.2607 5.68654 15.9678 5.97944L13.9678 7.97944C13.6749 8.27233 13.6749 8.74709 13.9678 9.03998C14.2607 9.33288 14.7355 9.33288 15.0284 9.03998L17.0284 7.03998C17.3213 6.74709 17.3213 6.27233 17.0284 5.97944Z" fill="#10884C"/>
<path d="M17.0284 16.3458C16.7355 16.6387 16.2607 16.6387 15.9678 16.3458L13.9678 14.3458C13.6749 14.0529 13.6749 13.5781 13.9678 13.2852C14.2607 12.9923 14.7355 12.9923 15.0284 13.2852L17.0284 15.2852C17.3213 15.5781 17.3213 16.0529 17.0284 16.3458Z" fill="#10884C"/>
</svg>

<svg xmlns="http://www.w3.org/2000/svg" width="24" height="24" fill="none" viewBox="0 0 24 24">
  <path fill="#10884C" d="M11.472 14.304a.75.75 0 0 1 .975.418c.378.946.655 2.47.351 3.988-.311 1.556-1.24 3.117-3.252 3.98a.75.75 0 0 1-.592-1.38c1.489-.637 2.143-1.743 2.373-2.895.238-1.19.015-2.416-.273-3.137a.75.75 0 0 1 .418-.974Z"/>
  <path fill="#2EB66D" d="M16.05 2a4.95 4.95 0 0 1 2.844 9A4.95 4.95 0 1 1 12 17.894 4.95 4.95 0 1 1 5.105 11 4.95 4.95 0 1 1 12 4.105 4.943 4.943 0 0 1 16.05 2Z"/>
  <path fill="#10884C" d="M6.97 5.98a.75.75 0 0 1 1.06 0l2 2a.75.75 0 1 1-1.06 1.06l-2-2a.75.75 0 0 1 0-1.06Zm0 10.366a.75.75 0 0 0 1.06 0l2-2a.75.75 0 1 0-1.06-1.06l-2 2a.75.75 0 0 0 0 1.06ZM17.028 5.98a.75.75 0 0 0-1.06 0l-2 2a.75.75 0 1 0 1.06 1.06l2-2a.75.75 0 0 0 0-1.06Zm0 10.366a.75.75 0 0 1-1.06 0l-2-2a.75.75 0 1 1 1.06-1.06l2 2a.75.75 0 0 1 0 1.06Z"/>
</svg>
